images/Bed_Bath__and__Beyond.svg

<svg width="177" height="56" viewBox="0 0 177 56" xmlns="http://www.w3.org/2000/svg"><title>Bed_Bath__and__Beyond</title><path d="M176.512 36.72c0-1.082-.892-1.955-1.974-1.955-1.082 0-1.974.873-1.974 1.955 0 1.1.892 1.974 1.974 1.974a1.972 1.972 0 0 0 1.974-1.974zm-.228 0a1.74 1.74 0 0 1-1.746 1.746 1.737 1.737 0 0 1-1.746-1.727 1.74 1.74 0 0 1 1.746-1.747c.968 0 1.746.778 1.746 1.727zm-2.487 1.025h.285v-.93h.72c.438 0 .324.398.362.664l.038.265h.342c-.114-.19-.076-.228-.095-.513-.04-.38-.058-.417-.267-.55.21-.17.285-.266.285-.55-.038-.494-.36-.55-.702-.55h-.97v2.163zm-44.13-3.208h21.562c31.963 0 31.963 21.05 0 21.05h-21.564v-21.05zM78.51 55.797c9.15 0 16.648-4.898 16.648-10.877 0-5.998-7.498-10.876-16.647-10.876-9.186 0-16.664 4.878-16.664 10.876 0 5.98 7.478 10.876 16.665 10.876zm-66.642-.21H.764v-21.05h10.193s8.41-.228 8.41 5.353c0 0 .34 3.834-2.98 4.954 0 0 4.136 1.1 4.136 5.01 0 3.91-3.853 5.733-8.655 5.733zM174.386 19.22l1.196.683s-1.534 2.173-3.937 4.51c2.517 3.352 4.563 6.08 4.563 6.08h-2.07l-3.687-4.974c-.41.36-.84.718-1.284 1.064-3.758 2.904-6.662 4.537-9.377 4.537-2.734 0-7.688-2.24-7.688-7.307 0-5.068 3.397-7.46 6.7-9.662a96.35 96.35 0 0 1 2.173-1.414s-3.046-3.482-3.046-6.557c0-3.095 2.694-5.563 5.694-5.563 3.018 0 5.22 2.79 5.22 5.657 0 2.705-2.62 4.86-5.606 6.98 1.458 1.915 4.578 6.06 7.392 9.808a63.096 63.096 0 0 0 3.756-3.843zm-89.61 11.274L96.903.314l12.186 30.18h-1.88l-3.928-9.718h-12.7l-3.89 9.718h-1.917zM36.903 1.3h6.625c18.676 0 19.094 29.194-.438 29.194h-6.188V1.3zm39.86 29.194H69.42V1.3h6.643s7.137 0 7.44 7.1c0 0 .418 4.65-3.227 6.624 0 0 5.79 1.177 5.79 7.308 0 6.188-4.916 8.162-9.3 8.162zm-68.408 0H1.01V1.3h6.663s7.137 0 7.422 7.1c0 0 .436 4.65-3.227 6.624 0 0 5.827 1.177 5.827 7.308 0 6.188-4.954 8.162-9.34 8.162zm166.43 5.334c.17 0 .435.038.397.417-.038.285-.21.323-.398.323h-.703v-.74h.703zm-28.17 13.382h2.26c12.26 0 12.26-8.124 0-8.124h-2.26v8.124zM95.52 34.537h11.33l10.042 11.18c.55.588 1.12.436.74-.456-.38-.91-.664-2.808-.664-2.808v-7.915h11.122v21.05h-11.16l-10.137-10.743c-.55-.608-1.12-.456-.74.455.36.89.55 2.81.55 2.81v7.477H95.52v-21.05zm-17.01 6.226c3.133 0 5.677 1.86 5.677 4.157 0 2.277-2.544 4.157-5.676 4.157-3.13 0-5.693-1.88-5.693-4.157 0-2.297 2.562-4.157 5.694-4.157zm-56.658-6.226h27.77l3.283 5.96 3.132-5.96h11.56l-9.794 12.09v8.96h-9.928v-9.263l-9.187-10.97v4.896h-7.725v2.07h7.1v5.41h-7.1v2.144h8.105v5.713H21.852v-21.05zm-13.4 8.238h1.992c2.126 0 2.126-3.19 0-3.19H8.45v3.19zm0 4.384h2.277c2.98 0 2.98 3.473 0 3.473H8.45V47.16zm160.98-23.016L162 14.12c-2.685 1.865-3.468 2.347-4.792 3.353-1.405 1.1-3.38 2.733-3.38 5.846 0 3.112 2.47 5.92 5.695 5.92 2.373 0 5.668-1.404 9.908-5.096zm-7.188-12.21c1.353-.862 2.35-1.537 3.164-2.395 1.367-1.444 1.594-2.355 1.594-3.266 0-.892-.588-3.796-3.587-3.796-3.018 0-3.702 2.676-3.702 4.024 0 1.218.766 2.994 2.53 5.43zM123.687 13.6h17.804V1.3h1.69v29.194h-1.69v-15.07h-17.803v15.07h-1.69V1.3h1.69v12.3zM103.34 1.3h16.816v1.652h-7.573v27.542h-1.69V2.952h-7.554v-1.65zm-.742 17.786l-5.694-14.14-5.656 14.14h11.35zM38.858 3.123h4.405c16.722 0 16.476 25.492 0 25.492H38.86V3.123zM19.955 1.3h13.913v1.823h-12.13v10.61h11.788v1.69H21.738V28.69h12.13v1.804H19.953V1.3zm51.098 1.785h4.897c7.705 0 7.724 11.484 0 11.484H71.05V3.084zm-68.41 0H7.54c7.707 0 7.726 11.484 0 11.484H2.643V3.084zM71.09 16.448h6.51c9.15 0 8.902 12.224-.247 12.224H71.09V16.448zm-68.39 0h6.49c9.17 0 8.923 12.224-.245 12.224H2.7V16.448z" fill="#1A1918" fill-rule="evenodd"/></svg>

<?xml version="1.0" encoding="UTF-8" standalone="no"?>
<svg width="177px" height="56px" viewBox="0 0 177 56" version="1.1" xmlns="http://www.w3.org/2000/svg" xmlns:xlink="http://www.w3.org/1999/xlink" xmlns:sketch="http://www.bohemiancoding.com/sketch/ns">
    <!-- Generator: Sketch 3.4 (15575) - http://www.bohemiancoding.com/sketch -->
    <title>Bed_Bath__and__Beyond</title>
    <desc>Created with Sketch.</desc>
    <defs></defs>
    <g id="Page-1" stroke="none" stroke-width="1" fill="none" fill-rule="evenodd" sketch:type="MSPage">
        <g id="Bed_Bath__and__Beyond" sketch:type="MSLayerGroup" fill="#1A1918">
            <g id="Page-1" sketch:type="MSShapeGroup">
                <g id="Bed_Bath__and__Beyond">
                    <path d="M176.512,36.72 C176.512,35.638 175.62,34.765 174.538,34.765 C173.456,34.765 172.564,35.638 172.564,36.72 C172.564,37.821 173.456,38.694 174.538,38.694 C175.62,38.694 176.512,37.821 176.512,36.72 Z M176.284,36.72 C176.284,37.688 175.506,38.466 174.538,38.466 C173.57,38.466 172.792,37.688 172.792,36.739 C172.792,35.771 173.57,34.993 174.538,34.993 C175.506,34.993 176.284,35.771 176.284,36.72 Z M173.797,37.745 L174.082,37.745 L174.082,36.815 L174.803,36.815 C175.24,36.815 175.126,37.213 175.164,37.479 L175.202,37.745 L175.544,37.745 C175.43,37.555 175.468,37.517 175.449,37.232 C175.411,36.853 175.392,36.815 175.183,36.682 C175.392,36.511 175.468,36.416 175.468,36.132 C175.43,35.638 175.107,35.581 174.766,35.581 L173.797,35.581 L173.797,37.745 Z M129.666,34.537 L151.229,34.537 C183.193,34.537 183.193,55.587 151.229,55.587 L129.666,55.587 L129.666,34.537 Z M78.511,55.796 C87.66,55.796 95.158,50.899 95.158,44.92 C95.158,38.922 87.66,34.044 78.511,34.044 C69.324,34.044 61.846,38.922 61.846,44.92 C61.846,50.899 69.324,55.796 78.511,55.796 Z M11.868,55.587 L0.764,55.587 L0.764,34.537 L10.957,34.537 C10.957,34.537 19.366,34.309 19.366,39.89 C19.366,39.89 19.707,43.724 16.386,44.844 C16.386,44.844 20.523,45.945 20.523,49.855 C20.523,53.765 16.67,55.587 11.868,55.587 Z M174.386,19.219 L175.582,19.903 C175.582,19.903 174.048,22.076 171.645,24.413 C174.162,27.765 176.208,30.494 176.208,30.494 L174.139,30.494 L170.451,25.519 C170.04,25.88 169.611,26.238 169.166,26.584 C165.408,29.488 162.504,31.121 159.789,31.121 C157.056,31.121 152.102,28.881 152.102,23.813 C152.102,18.745 155.499,16.353 158.802,14.151 C159.604,13.612 160.324,13.149 160.975,12.736 C160.975,12.736 157.929,9.254 157.929,6.179 C157.929,3.085 160.624,0.617 163.624,0.617 C166.642,0.617 168.843,3.408 168.843,6.274 C168.843,8.979 166.224,11.133 163.238,13.253 C164.696,15.169 167.816,19.315 170.63,23.062 C171.814,21.957 173.065,20.682 174.386,19.219 Z M84.775,30.494 L96.904,0.314 L109.09,30.494 L107.211,30.494 L103.282,20.776 L90.583,20.776 L86.692,30.494 L84.775,30.494 Z M36.904,1.301 L43.529,1.301 C62.206,1.301 62.624,30.494 43.092,30.494 L36.904,30.494 L36.904,1.301 Z M76.765,30.494 L69.419,30.494 L69.419,1.301 L76.063,1.301 C76.063,1.301 83.2,1.301 83.503,8.4 C83.503,8.4 83.921,13.05 80.276,15.024 C80.276,15.024 86.066,16.201 86.066,22.332 C86.066,28.52 81.15,30.494 76.765,30.494 Z M8.356,30.494 L1.011,30.494 L1.011,1.301 L7.673,1.301 C7.673,1.301 14.81,1.301 15.095,8.4 C15.095,8.4 15.531,13.05 11.868,15.024 C11.868,15.024 17.695,16.201 17.695,22.332 C17.695,28.52 12.741,30.494 8.356,30.494 Z M174.785,35.828 C174.955,35.828 175.221,35.866 175.183,36.245 C175.145,36.53 174.974,36.568 174.785,36.568 L174.082,36.568 L174.082,35.828 L174.785,35.828 Z M146.616,49.21 L148.875,49.21 C161.137,49.21 161.137,41.086 148.875,41.086 L146.616,41.086 L146.616,49.21 Z M95.519,34.537 L106.85,34.537 L116.892,45.717 C117.442,46.305 118.011,46.153 117.632,45.261 C117.252,44.35 116.968,42.452 116.968,42.452 L116.968,34.537 L128.09,34.537 L128.09,55.587 L116.93,55.587 L106.793,44.844 C106.243,44.236 105.673,44.388 106.053,45.299 C106.414,46.191 106.603,48.109 106.603,48.109 L106.603,55.587 L95.519,55.587 L95.519,34.537 Z M78.511,40.763 C81.643,40.763 84.187,42.623 84.187,44.92 C84.187,47.197 81.643,49.077 78.511,49.077 C75.379,49.077 72.817,47.197 72.817,44.92 C72.817,42.623 75.379,40.763 78.511,40.763 Z M21.852,34.537 L49.622,34.537 L52.905,40.497 L56.037,34.537 L67.597,34.537 L57.803,46.628 L57.803,55.587 L47.875,55.587 L47.875,46.324 L38.688,35.353 L38.688,40.25 L30.963,40.25 L30.963,42.319 L38.062,42.319 L38.062,47.729 L30.963,47.729 L30.963,49.874 L39.068,49.874 L39.068,55.587 L21.852,55.587 L21.852,34.537 Z M8.451,42.775 L10.444,42.775 C12.57,42.775 12.57,39.586 10.444,39.586 L8.451,39.586 L8.451,42.775 Z M8.451,47.159 L10.729,47.159 C13.709,47.159 13.709,50.633 10.729,50.633 L8.451,50.633 L8.451,47.159 Z M169.431,24.144 L162,14.12 C159.315,15.985 158.532,16.467 157.208,17.473 C155.803,18.574 153.829,20.206 153.829,23.319 C153.829,26.432 156.297,29.241 159.523,29.241 C161.896,29.241 165.191,27.836 169.431,24.144 Z M162.244,11.933 C163.597,11.072 164.594,10.397 165.408,9.539 C166.775,8.096 167.002,7.185 167.002,6.274 C167.002,5.382 166.414,2.478 163.415,2.478 C160.397,2.478 159.713,5.154 159.713,6.502 C159.713,7.72 160.479,9.496 162.244,11.933 Z M123.687,13.601 L141.491,13.601 L141.491,1.301 L143.181,1.301 L143.181,30.494 L141.491,30.494 L141.491,15.423 L123.687,15.423 L123.687,30.494 L121.997,30.494 L121.997,1.301 L123.687,1.301 L123.687,13.601 Z M103.339,1.301 L120.156,1.301 L120.156,2.952 L112.583,2.952 L112.583,30.494 L110.893,30.494 L110.893,2.952 L103.339,2.952 L103.339,1.301 Z M102.598,19.086 L96.904,4.945 L91.248,19.086 L102.598,19.086 Z M38.859,3.123 L43.263,3.123 C59.985,3.123 59.739,28.615 43.263,28.615 L38.859,28.615 L38.859,3.123 Z M19.954,1.301 L33.867,1.301 L33.867,3.123 L21.738,3.123 L21.738,13.734 L33.525,13.734 L33.525,15.423 L21.738,15.423 L21.738,28.691 L33.867,28.691 L33.867,30.494 L19.954,30.494 L19.954,1.301 Z M71.052,3.085 L75.949,3.085 C83.655,3.085 83.674,14.569 75.949,14.569 L71.052,14.569 L71.052,3.085 Z M2.643,3.085 L7.54,3.085 C15.247,3.085 15.266,14.569 7.54,14.569 L2.643,14.569 L2.643,3.085 Z M71.09,16.448 L77.6,16.448 C86.749,16.448 86.502,28.672 77.353,28.672 L71.09,28.672 L71.09,16.448 Z M2.7,16.448 L9.191,16.448 C18.36,16.448 18.113,28.672 8.945,28.672 L2.7,28.672 L2.7,16.448 Z" id="Fill-2"></path>
                </g>
            </g>
        </g>
    </g>
</svg>
